Origami/24x24/apps/frozen-bubble.svg

<svg width="24" height="24" version="1" xmlns="http://www.w3.org/2000/svg" xmlns:xlink="http://www.w3.org/1999/xlink">
 <defs>
  <linearGradient id="linearGradient4652" x1="30.577" x2="45" y1="19.129" y2="27.456" gradientTransform="matrix(.5 0 0 .5 .5 0)" gradientUnits="userSpaceOnUse">
   <stop style="stop-color:#7d329a" offset="0"/>
   <stop style="stop-color:#ac5cce" offset="1"/>
  </linearGradient>
 </defs>
 <path d="m10.253973 2.4999127c-2.3658437 0.035402-7.1029611 3.9556499-7.6901643 8.6699223-0.1690912 1.357523 0.00448 2.802943 0.4424237 4.15332 0.2420337 4.2378 5.7243275 6.945145 9.1483076 7.174805 4.188893 0.100177 8.101138-3.517338 8.869961-4.488282 1.406071-2.110761-0.584072-6.660829-2.359593-9.3105464-1.948486-2.9078455-5.580765-5.0251702-8.410935-6.1992189z" style="opacity:.2"/>
 <path d="m8.0000001 11.890016c-1.0162846 3.142944-2.9582336 6.629721-7.0000001 6.045335 0.2672597-2.628774 1.3585835-5.275518 2.900195-7.399311 0.3249745-0.447697 0.9955165-0.6461799 1.2728815-1.0360399z" style="opacity:.2"/>
 <path d="M 8.0000001,11.390016 C 6.9837155,14.53296 5.0417665,18.019737 1,17.435351 1.2672597,14.806577 2.3585835,12.159833 3.900195,10.03604 4.2251695,9.5883426 4.8957115,9.3898601 5.1730765,9.0000001 Z" style="fill:#653578"/>
 <path d="m10.253973 2.0000001c-2.3658437 0.035402-7.1029611 3.95565-7.6901643 8.6699219-0.1690912 1.357524 0.00448 2.802944 0.4424237 4.15332 0.2420337 4.2378 5.7243275 6.945146 9.1483076 7.174805 4.188893 0.100178 8.101138-3.517338 8.869961-4.488281 1.406071-2.110761-0.584072-6.66083-2.359593-9.3105469-1.948486-2.9078455-5.580765-5.0251703-8.410935-6.199219z" style="fill:#7d329a"/>
 <path d="m10.253973 2.0000001c-2.3658437 0.035402-7.1032259 3.95565-7.6904291 8.6699219-0.053374 0.428505-0.069088 0.866374-0.056641 1.306641 0.00742-0.271253 0.023523-0.540757 0.056641-0.806641 0.5872032-4.7142719 5.3245854-8.6345204 7.6904291-8.6699219 2.83017 1.1740487 6.462648 3.2913735 8.411133 6.199219 1.302198 1.9433479 2.71465 4.9059119 2.823242 7.1816409 0.1037-2.324918-1.423072-5.592085-2.823242-7.6816409-1.948485-2.9078455-5.580963-5.0251703-8.411133-6.199219z" style="fill:#ffffff;opacity:.1"/>
 <ellipse transform="matrix(.67816244 -.73491204 .72426347 .68952333 0 0)" cx="-6.762" cy="15.997" rx="3.486" ry="4.455" style="fill:#fcf8fd"/>
 <path d="m16.890016 8.0000001c3.142943 1.088876 6.629721 3.1695359 6.045335 7.4999999-2.628773-0.28635-5.275518-1.455626-7.399312-3.107352-0.447697-0.348186-0.646179-1.066625-1.036039-1.363802z" style="opacity:.2"/>
 <path d="m16.890016 7.5000001c3.142943 1.088876 6.629721 3.1695359 6.045335 7.4999999-2.628773-0.28635-5.275518-1.455626-7.399312-3.107352-0.447697-0.348186-0.646179-1.066625-1.036039-1.363802z" style="fill:url(#linearGradient4652)"/>
 <path d="m8.9610894 11.795081c0.486369 2.154875-3.7080631 4.377165-5.8124304 3.514167-1.0128891-0.415385-1.185493-1.996887-1.1428209-3.234187 0.043013-1.095947-0.064725-1.429648 1.0104904-1.534233 2.0363333-0.192504 5.7310409 0.307354 5.9447609 1.254253z" style="opacity:.2"/>
 <path d="m8.9610894 11.295081c0.486369 2.154875-3.7080631 4.377165-5.8124304 3.514167-1.0128891-0.415385-1.185493-1.996887-1.1428209-3.234187 0.0430134-1.095947-0.0647254-1.429648 1.0104904-1.534233 2.0363333-0.1925039 5.7310409 0.307354 5.9447609 1.254253z" style="fill:#ffc102"/>
 <g transform="matrix(.25 0 0 .25 -1.75 3)" style="opacity:.2">
  <circle transform="scale(-1,1)" cx="-19" cy="26" r="8"/>
  <circle transform="scale(-1,1)" cx="-16.389" cy="25.983" r="4"/>
 </g>
 <circle transform="scale(-1,1)" cx="-7" cy="9.5" r="3" style="opacity:.2"/>
 <circle transform="scale(-1,1)" cx="-7" cy="9" r="3" style="fill:#ffffff"/>
 <circle transform="scale(-1,1)" cx="-6.5" cy="8.5" r="1.5" style="fill:#3f3f3f"/>
 <circle transform="scale(-1,1)" cx="-3" cy="9" r="2" style="fill:#ffffff"/>
 <circle transform="scale(-1,1)" cx="-3" cy="9" r="1" style="fill:#3f3f3f"/>
</svg>

<svg xmlns="http://www.w3.org/2000/svg" xmlns:xlink="http://www.w3.org/1999/xlink" width="24" height="24" version="1">
 <defs>
  <linearGradient id="linearGradient4648">
   <stop style="stop-color:#7d329a" offset="0"/>
   <stop style="stop-color:#ac5cce" offset="1"/>
  </linearGradient>
  <linearGradient id="linearGradient4652" x1="30.577" x2="45" y1="19.129" y2="27.456" gradientTransform="matrix(0.5,0,0,0.5,0.5,0)" gradientUnits="userSpaceOnUse" xlink:href="#linearGradient4648"/>
 </defs>
 <path style="opacity:0.2" d="m 10.253973,2.4999127 c -2.3658437,0.035402 -7.1029611,3.9556499 -7.6901643,8.6699223 -0.1690912,1.357523 0.00448,2.802943 0.4424237,4.15332 0.2420337,4.2378 5.7243275,6.945145 9.1483076,7.174805 4.188893,0.100177 8.101138,-3.517338 8.869961,-4.488282 C 22.430572,15.898917 20.440429,11.348849 18.664908,8.6991316 16.716422,5.7912861 13.084143,3.6739614 10.253973,2.4999127 Z"/>
 <path style="opacity:0.2" d="M 8.0000001,11.890016 C 6.9837155,15.03296 5.0417665,18.519737 1,17.935351 1.2672597,15.306577 2.3585835,12.659833 3.900195,10.53604 4.2251695,10.088343 4.8957115,9.8898601 5.1730765,9.5000001 Z"/>
 <path style="fill:#653578" d="M 8.0000001,11.390016 C 6.9837155,14.53296 5.0417665,18.019737 1,17.435351 1.2672597,14.806577 2.3585835,12.159833 3.900195,10.03604 4.2251695,9.5883426 4.8957115,9.3898601 5.1730765,9.0000001 Z"/>
 <path style="fill:#7d329a" d="m 10.253973,2.0000001 c -2.3658437,0.035402 -7.1029611,3.95565 -7.6901643,8.6699219 -0.1690912,1.357524 0.00448,2.802944 0.4424237,4.15332 0.2420337,4.2378 5.7243275,6.945146 9.1483076,7.174805 4.188893,0.100178 8.101138,-3.517338 8.869961,-4.488281 1.406071,-2.110761 -0.584072,-6.66083 -2.359593,-9.3105469 -1.948486,-2.9078455 -5.580765,-5.0251703 -8.410935,-6.199219 z"/>
 <path style="opacity:0.1;fill:#ffffff" d="m 10.253973,2.0000001 c -2.3658437,0.035402 -7.1032259,3.95565 -7.6904291,8.6699219 -0.053374,0.428505 -0.069088,0.866374 -0.056641,1.306641 0.00742,-0.271253 0.023523,-0.540757 0.056641,-0.806641 0.5872032,-4.7142719 5.3245854,-8.6345204 7.6904291,-8.6699219 2.83017,1.1740487 6.462648,3.2913735 8.411133,6.199219 1.302198,1.9433479 2.71465,4.9059119 2.823242,7.1816409 0.1037,-2.324918 -1.423072,-5.592085 -2.823242,-7.6816409 -1.948485,-2.9078455 -5.580963,-5.0251703 -8.411133,-6.199219 z"/>
 <ellipse style="fill:#fcf8fd" cx="-6.762" cy="15.997" rx="3.486" ry="4.455" transform="matrix(0.67816244,-0.73491204,0.72426347,0.68952333,0,0)"/>
 <path style="opacity:0.2" d="M 16.890016,8.0000001 C 20.032959,9.0888761 23.519737,11.169536 22.935351,15.5 20.306578,15.21365 17.659833,14.044374 15.536039,12.392648 15.088342,12.044462 14.88986,11.326023 14.5,11.028846 Z"/>
 <path style="fill:url(#linearGradient4652)" d="M 16.890016,7.5000001 C 20.032959,8.5888761 23.519737,10.669536 22.935351,15 20.306578,14.71365 17.659833,13.544374 15.536039,11.892648 15.088342,11.544462 14.88986,10.826023 14.5,10.528846 Z"/>
 <path style="opacity:0.2" d="m 8.9610894,11.795081 c 0.486369,2.154875 -3.7080631,4.377165 -5.8124304,3.514167 -1.0128891,-0.415385 -1.185493,-1.996887 -1.1428209,-3.234187 0.043013,-1.095947 -0.064725,-1.429648 1.0104904,-1.534233 2.0363333,-0.192504 5.7310409,0.307354 5.9447609,1.254253 z"/>
 <path style="fill:#ffc102" d="M 8.9610894,11.295081 C 9.4474584,13.449956 5.2530263,15.672246 3.148659,14.809248 2.1357699,14.393863 1.963166,12.812361 2.0058381,11.575061 2.0488515,10.479114 1.9411127,10.145413 3.0163285,10.040828 5.0526618,9.8483241 8.7473694,10.348182 8.9610894,11.295081 Z"/>
 <g style="opacity:0.2" transform="matrix(0.25,0,0,0.25,-1.75,3)">
  <circle cx="-19" cy="26" r="8" transform="scale(-1,1)"/>
  <circle cx="-16.389" cy="25.983" r="4" transform="scale(-1,1)"/>
 </g>
 <circle style="opacity:0.2" cx="-7" cy="9.5" r="3" transform="scale(-1,1)"/>
 <circle style="fill:#ffffff" cx="-7" cy="9" r="3" transform="scale(-1,1)"/>
 <circle style="fill:#3f3f3f" cx="-6.5" cy="8.5" r="1.5" transform="scale(-1,1)"/>
 <circle style="fill:#ffffff" cx="-3" cy="9" r="2" transform="scale(-1,1)"/>
 <circle style="fill:#3f3f3f" cx="-3" cy="9" r="1" transform="scale(-1,1)"/>
</svg>
